X:73
T:Farewell to Mac McKinley
R:waltz
C: 1993, 2010 L.E. McCullough  
M:3/4
L:1/8
K:A
EA|:c3e cB|cB A2 AF|A4F|E4 EA|c3e fe|cB A2FA|B3c BA|B4 EA|
c3e cB|cB A2 AF|A4F|E4 EA|c3e fa|fe c2 BA|B3c BA|1 A4 EA:|2 A4 ce|]
|:f3a fe|fe c2 BA|Bc ef ec|e4 ce|f3a ba|ba f2 af|e3f ec|B4 AB|
c3e cB|cB A2 AF|A4F|E4 EA|c3e fa|fe c2 BA|B3c BA|1 A4 ce:|2 A4 EA|]

